img/download.svg

<?xml version="1.0" encoding="UTF-8"?>
<svg width="16px" height="16px" viewBox="0 0 16 16" version="1.1" xmlns="http://www.w3.org/2000/svg" xmlns:xlink="http://www.w3.org/1999/xlink">
    <title>download</title>
    <g id="download" fill="#E6E6E6" fill-rule="evenodd">
        <path d="M3,0 L3,5 C3,5.55228475 3.44771525,6 4,6 L12,6 C12.5522847,6 13,5.55228475 13,5 L13,0 L14,0 L16,2 L16,15 C16,15.5522847 15.5522847,16 15,16 L1,16 C0.44771525,16 6.76353751e-17,15.5522847 0,15 L0,1 C-6.76353751e-17,0.44771525 0.44771525,1.01453063e-16 1,0 L3,0 Z M13,15 C13.5522847,15 14,14.5522847 14,14 L14,8 C14,7.44771525 13.5522847,7 13,7 L3,7 C2.44771525,7 2,7.44771525 2,8 L2,14 C2,14.5522847 2.44771525,15 3,15 L13,15 Z M10,5 L10,1 L12,1 L12,5 L10,5 Z" />
    </g>
</svg>

<?xml version="1.0" encoding="UTF-8"?>
<svg viewBox="0 0 16 16" xmlns="http://www.w3.org/2000/svg">
  <path d="M3 0v5c0 .6.4 1 1 1h8c.6 0 1-.4 1-1V0h1l2 2v13c0 .6-.4 1-1 1H1a1 1 0 0 1-1-1V1c0-.6.4-1 1-1h2zm10 15c.6 0 1-.4 1-1V8c0-.6-.4-1-1-1H3a1 1 0 0 0-1 1v6c0 .6.4 1 1 1h10zM10 5V1h2v4h-2z" fill="#E6E6E6" fill-rule="evenodd"/>
</svg>
